X:1
T:Title
%%score { ( 1 4 ) | ( 2 3 ) }
L:1/8
M:3/4
K:F
V:1 treble nm="Grand Piano"
V:4 treble 
V:2 bass 
V:3 bass 
V:1
 z2 z2[Q:1/4=94] AF | [B,D]2 [A,C]2 FA | [CA]2 [B,G]2 cB | [CA]3 G [A,F]G |[M:2/4] [CA]4 | %5
[M:1/4] [CA]F |[M:3/4] [B,D]2 [A,C]2 FA | [CA]2 [B,G]2 cB | [CA]3 _A [C=A]>G |[M:2/4] [A,F]4 | %10
[M:1/4] cc |[M:3/4] [Fd]2 z2 z2 | [DFB]2 [CFA]2 [CFc][CEB] | [CFA]2 [A,CF]2 [B,F][DG] | %14
[M:5/8] [^CA]2 B3 |[M:1/4] AF |[M:3/4] D2 C2 cc | [Dd]2 [DFB]2 [Fe][Fd] | [Fc]4 .c2 |[M:2/4] F4 |] %20
V:2
 z2 z2 CA, | F,,F, F,2 A,C | C,,C, C,2 ED | C,,C, z B, z B, |[M:2/4] F,,C, F,C, |[M:1/4] F,,A, | %6
[M:3/4] F,,F, F,2 A,C | C,,C, C,2 ED | C,,C, z =B, z z/ _B,/ |[M:2/4] F,,C, F,2 | %10
[M:1/4] [F,A,F][F,A,F] |[M:3/4] .[B,,B,]2 [F,A,F]2 [F,CF][F,CF] | B,,D, F,2 A,G, | %13
 F,2 F,_E, D,[B,,D,] |[M:5/8] E,2- [C,E,C]3 |[M:1/4] [F,C][F,A,C] | %16
[M:3/4] [F,B,]2 [F,A,]2 [F,A,F][F,A,_E] | B,F, B,,2 [=B,,_A,][B,,A,] | %18
 .A,2 z [C,^F,] [C,G,][C,B,C] |[M:2/4] [F,A,C]4 |] %20
V:3
 x6 | x6 | x6 | z2 C,2 C,2 |[M:2/4] x4 |[M:1/4] x2 |[M:3/4] x6 | x6 | z2 C,2 C,2 |[M:2/4] x4 | %10
[M:1/4] x2 |[M:3/4] x6 | x6 | x6 |[M:5/8] A,,2 z z2 |[M:1/4] x2 |[M:3/4] x6 | B,,2 z2 z2 | C,4 z2 | %19
[M:2/4] x4 |] %20
V:4
 x6 | x6 | x6 | x6 |[M:2/4] x4 |[M:1/4] x2 |[M:3/4] x6 | x6 | x6 |[M:2/4] x4 |[M:1/4] x2 | %11
[M:3/4] z D, c2 AA | x6 | x6 |[M:5/8] x5 |[M:1/4] x2 |[M:3/4] x6 | x6 | z _A, =A,[_Ec] =E/-[EB]/G | %19
[M:2/4] x4 |] %20

